icons/lines/ship.svg

<svg xmlns="http://www.w3.org/2000/svg" width="24" height="24" viewBox="0 0 24 24" fill="none" stroke="currentColor" stroke-width="2" stroke-linecap="round" stroke-linejoin="round" >
  <path d="M20.4198 12.3699C21.2898 12.7199 21.8297 13.7499 21.6297 14.6599L21.2197 16.5199C20.5097 19.7199 17.9997 21.9999 14.3797 21.9999H9.61974C5.99974 21.9999 3.48974 19.7199 2.77974 16.5199L2.36974 14.6599C2.16974 13.7499 2.70973 12.7199 3.57973 12.3699L4.99974 11.7999L10.5098 9.58993C11.4698 9.20993 12.5297 9.20993 13.4897 9.58993L18.9997 11.7999L20.4198 12.3699Z"/>
  <path d="M12 22V10"/>
  <path d="M19 8V11.8L13.49 9.59C12.53 9.21 11.47 9.21 10.51 9.59L5 11.8V8C5 6.35 6.35 5 8 5H16C17.65 5 19 6.35 19 8Z"/>
  <path d="M14.5 5H9.5V3C9.5 2.45 9.95 2 10.5 2H13.5C14.05 2 14.5 2.45 14.5 3V5Z"/>
  </svg>

<svg xmlns="http://www.w3.org/2000/svg" width="24" height="24" viewBox="0 0 24 24" fill="none" stroke="currentColor" stroke-width="2" stroke-linecap="round" stroke-linejoin="round">
  <path d="M12 22V10" />
  <path d="M13.49 9.59a4 4 0 0 0-2.98 0l-6.93 2.78c-.87.35-1.41 1.38-1.21 2.29l.41 1.86C3.49 19.72 6 22 9.62 22h4.76c3.62 0 6.13-2.28 6.84-5.48l.41-1.86c.2-.91-.34-1.94-1.21-2.29z" />
  <path d="M5 11.8V8a3 3 0 0 1 3-3h8a3 3 0 0 1 3 3v3.8" />
  <path d="M9.5 5V3a1 1 0 0 1 1-1h3a1 1 0 0 1 1 1v2" />
</svg>
